img/twitter.svg

<svg xmlns:xlink="http://www.w3.org/1999/xlink" viewBox="0 0 46 45" fill="none" xmlns="http://www.w3.org/2000/svg" class="h-6 w-6 rounded-full md:h-8 md:w-8 fill-white dark:!fill-white !fill-trdark" width="46"  height="45" ><path d="M22.625 0C10.1984 0 0.125 10.0734 0.125 22.5C0.125 34.9266 10.1984 45 22.625 45C35.0516 45 45.125 34.9266 45.125 22.5C45.125 10.0734 35.0516 0 22.625 0ZM31.7773 18.4312C31.7867 18.6234 31.7891 18.8156 31.7891 19.0031C31.7891 24.8625 27.3336 31.6148 19.182 31.6148C16.7733 31.6188 14.4148 30.9271 12.3898 29.6227C12.7344 29.6648 13.0883 29.6813 13.4469 29.6813C15.5234 29.6813 17.4336 28.9758 18.95 27.7852C18.0259 27.767 17.1305 27.461 16.3885 26.9098C15.6466 26.3586 15.0951 25.5897 14.8109 24.7102C15.4746 24.8363 16.1582 24.8099 16.8102 24.6328C15.8071 24.43 14.9052 23.8865 14.2571 23.0945C13.6091 22.3025 13.2549 21.3108 13.2547 20.2875V20.2336C13.8523 20.5641 14.5367 20.7656 15.2633 20.7891C14.323 20.1631 13.6573 19.2016 13.4024 18.1011C13.1476 17.0006 13.3228 15.8443 13.8922 14.8687C15.0054 16.2375 16.3936 17.3572 17.967 18.1554C19.5403 18.9536 21.2638 19.4125 23.0258 19.5023C22.8018 18.5515 22.8982 17.5533 23.3 16.6629C23.7019 15.7725 24.3866 15.0398 25.2478 14.5787C26.109 14.1177 27.0984 13.954 28.0623 14.1133C29.0261 14.2725 29.9102 14.7458 30.5773 15.4594C31.5691 15.2631 32.5203 14.8993 33.3898 14.3836C33.0593 15.4105 32.3672 16.2824 31.4422 16.8375C32.3207 16.7317 33.1786 16.4955 33.9875 16.1367C33.3933 17.0271 32.6448 17.8041 31.7773 18.4312Z" fill="#FFFFFF"></path></svg>

<svg xmlns="http://www.w3.org/2000/svg" viewBox="0 0 46 45" width="55" height="55" class="h-6 w-6 rounded-full md:h-8 md:w-8 fill-white dark:!fill-white !fill-trdark"><path d="M22.625 0C10.198 0 .125 10.073.125 22.5S10.198 45 22.625 45s22.5-10.073 22.5-22.5S35.052 0 22.625 0m9.152 18.431q.014.29.012.572c0 5.86-4.455 12.612-12.607 12.612a12.5 12.5 0 0 1-6.792-1.992c.344.042.698.058 1.057.058a8.88 8.88 0 0 0 5.503-1.896 4.44 4.44 0 0 1-4.14-3.075 4.46 4.46 0 0 0 2-.077 4.434 4.434 0 0 1-3.555-4.345v-.054c.597.33 1.282.532 2.008.555a4.43 4.43 0 0 1-1.37-5.92 12.6 12.6 0 0 0 9.133 4.633 4.432 4.432 0 0 1 7.551-4.043 8.9 8.9 0 0 0 2.813-1.075 4.45 4.45 0 0 1-1.948 2.453 8.9 8.9 0 0 0 2.545-.7 9 9 0 0 1-2.21 2.294" fill="#FFF"/></svg>
